X:26
T:
S:Efter Anna Pettersson, Myrungs i Linde.
M:C
L:1/8
K:Eb
G|B2 G E B2 A D|F4 E2 z c|c2 A c e2 d c|
w:1.~Ma-til-da var hul-dar u trou-gän, Ma-til-da var hul-dar u
B6 z::B|B> A G B e> E E E|
w:ömm. Män al-dri vi en dag ti-sam-man
A4 c2 z d|e2 d> c B B A D|E6 z:|
w:le-vat, trei år ha för-flu-tä sum en drömm.
